X:1
T:Quest'è compagn'eterno
T:Giammateo Asola
T:Source : Madrigali a due voci---Venetia---G.Vincenti---1587. Editor : André Vierendeels (18/04/17).
T:Notes : Original clefs : C1, C1 Original note values have been halved Editorial accidentals above the staff "Fuga di un tempo all' unisono" 
T:Quest'è compagn'eterno
T:©
T:©
C:Giammateo Asola
Z:©
%%score [ 1 2 ]
L:1/8
Q:1/4=120
M:2/2
K:C
V:1 treble nm="Soprano 1" snm="S 1"
V:2 treble nm="Soprano 2" snm="S 2"
V:1
 A4 A2 A2 | cBAG FE F2 | E2 F3 G A2 | G2 A2 c3 d | e2 e2 A2 c2- | cBAG F2 E2 | FG A4 G2 | %7
w: Quest' è com-|pa- * * * * * *|gn'e- ter- * *|no, a l'alt _|_ o- pre le-||gia- * * *|
 A4 E2 c2 | c2 d2 d2 e2 | A4 B2 B2 | ^c4 d4 | z2 A2 F2 G2 | AB c4 B2 | cBAG F2 G2 | A2 c3 B/A/ B2 | %15
w: dre, ch'in al-|zan l'huom' al bel|Re- gno su-|per- no,|tan- to di-|let- * * t'al-|pa- * * * * dre|ce- le- * * *|
 c2 A4 G2 | F4 E4 | z2 A2 A2 G2 | A2 c2 B4 | A4 z2 d2 | d2 c2 d2 B2 | A4 D2 d2 | d2 c2 d2 B2 | %23
w: ste che lor|do- na,|quel im- mor-|tal co- ro-|na, che|fia de- gna mer-|ce- de, di|chi ser- ve'a quel|
 A4 z2 E2 | F2 D2 F2 G2 | A2 d2 c2 B2- | BA A4 G2 | A2 D2 D2 E2 | FG A3 G/F/ G2 | ABcd e3 d | %30
w: Re, di|chi ser- ve'a quel|Re con vi- va|_ _ fe- *|de, con vi- va|fe- * * * * *||
 cB A3 G E2 | F2 c2 c2 B2- | BA A4 G2 | A2 c2 B4 | A8 |] %35
w: |de, con vi- va|_ _ fe- *||de.|
V:2
 z8 | A4 A2 A2 | cBAG FE F2 | E2 F3 G A2 | G2 A2 c3 d | e2 e2 A2 c2- | cBAG F2 E2 | FG A4 G2 | %8
w: |Quest' è com-|pa- * * * * * *|gn'e- ter- * *|no, a l'alt _|_ o- pre le-||gia- * * *|
 A4 E2 c2 | c2 d2 d2 e2 | A4 B2 B2 | ^c4 d4 | z2 A2 F2 G2 | AB c4 B2 | cBAG F2 G2 | A2 c3 B/A/ B2 | %16
w: dre, ch'in al-|zan l'huom al bel|Re- gno su-|per- no,|tan- ti di-|let- * * t'al-|pa- * * * * dre|ce- le- * * *|
 c2 A4 G2 | F4 E4 | z2 A2 A2 G2 | A2 c2 B4 | A4 z2 d2 | d2 c2 d2 B2 | A4 D2 d2 | d2 c2 d2 B2 | %24
w: ste che lor|do- na,|quel im- mor-|tal co- ro-|na, che|fia de- gna mer-|ce- de, di|chi ser- ve'a quel|
 A4 z2 E2 | F2 D2 F2 G2 | A2 d2 c2 B2- | BA A4 G2 | A2 D2 D2 E2 | FG A3 G/F/ G2 | ABcd e3 d | %31
w: Re di|chi ser- ve'a quel|Re con vi- va|_ _ fe- *|de, con vi- va|fe- * * * * *||
 cB A3 G E2 | F2 c2 c2 B2- | BA A4 G2 |"^#" A8 |] %35
w: |de, con vi- va|_ _ fe- *|de.|

